svg/add-user.svg

<?xml version="1.0" encoding="UTF-8"?>
<svg xmlns="http://www.w3.org/2000/svg" xmlns:xlink="http://www.w3.org/1999/xlink" width="32" height="32" viewBox="0 0 32 32">
<path fill-rule="nonzero" fill="rgb(0%, 0%, 0%)" fill-opacity="1" d="M 12.71875 0.261719 C 10.363281 0.300781 8.644531 1.023438 7.601562 2.398438 C 6.363281 4.03125 6.136719 6.492188 6.921875 9.738281 C 6.632812 10.09375 6.414062 10.628906 6.5 11.339844 C 6.671875 12.75 7.21875 13.328125 7.679688 13.558594 C 7.898438 14.667969 8.511719 15.914062 9.101562 16.5 L 9.101562 16.800781 C 9.105469 17.449219 9.101562 18.011719 9.039062 18.738281 C 8.648438 19.640625 7.34375 20.167969 5.839844 20.761719 C 3.339844 21.742188 0.234375 22.957031 0 26.839844 L -0.0390625 27.519531 L 17.339844 27.519531 C 18.558594 30.15625 21.230469 32 24.320312 32 C 28.554688 32 32 28.554688 32 24.320312 C 32 20.085938 28.554688 16.640625 24.320312 16.640625 C 21.785156 16.636719 19.410156 17.886719 17.980469 19.980469 C 17.523438 19.746094 17.148438 19.496094 16.878906 19.199219 C 16.753906 19.0625 16.652344 18.90625 16.578125 18.738281 C 16.515625 18.011719 16.535156 17.449219 16.539062 16.800781 L 16.539062 16.5 C 17.113281 15.914062 17.703125 14.667969 17.921875 13.558594 C 18.382812 13.328125 18.929688 12.75 19.101562 11.339844 C 19.183594 10.640625 18.980469 10.113281 18.699219 9.761719 C 19.074219 8.492188 19.832031 5.210938 18.519531 3.101562 C 17.96875 2.214844 17.136719 1.65625 16.039062 1.441406 C 15.433594 0.675781 14.273438 0.261719 12.71875 0.261719 M 24.320312 17.921875 C 27.851562 17.925781 30.714844 20.789062 30.71875 24.320312 C 30.71875 27.855469 27.855469 30.71875 24.320312 30.71875 C 20.789062 30.714844 17.925781 27.851562 17.921875 24.320312 C 17.925781 20.789062 20.789062 17.925781 24.320312 17.921875 M 23.679688 20.480469 L 23.679688 23.679688 L 20.480469 23.679688 L 20.480469 24.960938 L 23.679688 24.960938 L 23.679688 28.160156 L 24.960938 28.160156 L 24.960938 24.960938 L 28.160156 24.960938 L 28.160156 23.679688 L 24.960938 23.679688 L 24.960938 20.480469 Z M 16.921875 22.300781 C 16.878906 22.453125 16.832031 22.605469 16.800781 22.761719 C 16.832031 22.601562 16.878906 22.453125 16.921875 22.300781 M 16.679688 23.601562 "/>
</svg>

<svg role="img" viewBox="0 0 32 32" height="32" width="32" xmlns="http://www.w3.org/2000/svg"><path d="M12.719.262c-2.356.039-4.074.761-5.117 2.136-1.239 1.633-1.465 4.094-.68 7.34-.29.356-.508.89-.422 1.602.172 1.41.719 1.988 1.18 2.219.218 1.109.832 2.355 1.422 2.941v.3c.003.65 0 1.212-.063 1.938-.39.903-1.695 1.43-3.2 2.024-2.5.98-5.605 2.195-5.839 6.078l-.04.68h17.38c1.219 2.636 3.89 4.48 6.98 4.48 4.235 0 7.68-3.445 7.68-7.68 0-4.234-3.445-7.68-7.68-7.68a7.663 7.663 0 0 0-6.34 3.34c-.457-.234-.832-.484-1.101-.78a1.705 1.705 0 0 1-.3-.462c-.063-.726-.044-1.289-.04-1.937V16.5c.574-.586 1.164-1.832 1.383-2.941.46-.23 1.008-.809 1.18-2.22.082-.698-.122-1.226-.403-1.577.375-1.27 1.133-4.551-.18-6.66-.55-.887-1.382-1.446-2.48-1.66-.605-.766-1.766-1.18-3.32-1.18m11.601 17.66a6.407 6.407 0 0 1 6.399 6.398 6.397 6.397 0 0 1-6.399 6.399 6.407 6.407 0 0 1-6.398-6.399 6.407 6.407 0 0 1 6.398-6.398m-.64 2.558v3.2h-3.2v1.28h3.2v3.2h1.28v-3.2h3.2v-1.28h-3.2v-3.2Zm-6.758 1.82c-.043.153-.09.305-.121.462.031-.16.078-.309.12-.461m-.241 1.3"/></svg>
